packages/calcite-ui-icons/icons/arrow-left-10-24.svg

<?xml version="1.0" encoding="UTF-8"?><svg id="icons" xmlns="http://www.w3.org/2000/svg" viewBox="0 0 24 24"><defs><style>.cls-1{fill:none;}</style></defs><rect class="cls-1" width="24" height="24"/><path d="M21.9248,8.23633l-.84961.52734c-.03564-.05762-3.64551-5.76367-9.0752-5.76367-4.22101,0-7.33307,3.43933-8.53021,5.00165l3.52219.00519-.00195.991-4.99002-.00781v-4.99002h1v2.97113c1.47742-1.82513,4.64996-4.97113,9-4.97113,5.99219,0,9.76709,5.98242,9.9248,6.23633ZM6.12988,13.52057l.57031.66992,1.2998-1.0697v8.87921h1v-10h-.91132l-1.9588,1.52057ZM14.5083,22c-4.39038,0-4.39038-10,0-10,4.36823,0,4.36823,10,0,10ZM14.51178,12.92938c-3.08545,0-3.08545,8.14117,0,8.14117,3.05414,0,3.05414-8.14117,0-8.14117Z"/></svg>

<svg xmlns="http://www.w3.org/2000/svg" viewBox="0 0 24 24"><path d="M0 0h24v24H0z" style="fill:none"/><path d="m21.925 8.236-.85.528C21.04 8.706 17.43 3 12 3 7.779 3 4.667 6.44 3.47 8.002l3.522.005-.002.99L2 8.99V4h1v2.971C4.477 5.146 7.65 2 12 2c5.992 0 9.767 5.982 9.925 6.236M6.13 13.521l.57.67L8 13.12V22h1V12h-.911zM14.508 22c-4.39 0-4.39-10 0-10 4.369 0 4.369 10 0 10m.004-9.07c-3.086 0-3.086 8.14 0 8.14 3.054 0 3.054-8.14 0-8.14"/></svg>
